src/assets/icons/images.svg

<svg width="14" height="14" viewBox="0 0 14 14" fill="none" xmlns="http://www.w3.org/2000/svg">
<g id="images">
<g clip-path="url(#clip0_156_4553)">
<path id="Vector" fill-rule="evenodd" clip-rule="evenodd" d="M3.4054 2.83785C3.4054 2.31542 3.82892 1.89191 4.35135 1.89191H11.9189C12.4413 1.89191 12.8649 2.31542 12.8649 2.83785V7.53227L11.1503 6.08222C10.9114 5.88018 10.554 5.90958 10.3514 6.14795L9.54374 7.09788L6.54956 4.16537C6.43715 4.05527 6.28407 3.99678 6.12688 4.00386C5.96969 4.01095 5.82249 4.08297 5.72044 4.20273L3.4054 6.91945V3.59461V2.83785ZM8.80665 7.96485L6.18988 5.40198L3.4054 8.66959V8.8919C3.4054 9.41433 3.82892 9.83785 4.35135 9.83785H7.21425L8.80665 7.96485ZM8.70418 9.83785H11.1622H11.9189C12.4005 9.83785 12.798 9.47798 12.8572 9.01249L10.8495 7.31451L8.70418 9.83785ZM14 8.75966V8.8919C14 10.0413 13.0683 10.973 11.9189 10.973H11.7297V11.1622C11.7297 12.3081 10.7945 13.2432 9.64864 13.2432H2.08108C0.935189 13.2432 0 12.3081 0 11.1622V5.10812C0 3.96223 0.935189 3.02704 2.08108 3.02704H2.27027V2.83785C2.27027 1.68851 3.202 0.756775 4.35135 0.756775H11.9189C13.0683 0.756775 14 1.68851 14 2.83785V8.7521C14 8.75462 14 8.75714 14 8.75966ZM2.27027 8.46385V8.45674V4.16218H2.08108C1.56211 4.16218 1.13513 4.58915 1.13513 5.10812V11.1622C1.13513 11.6811 1.56211 12.1081 2.08108 12.1081H9.64864C10.1676 12.1081 10.5946 11.6811 10.5946 11.1622V10.973H4.35135C3.202 10.973 2.27027 10.0413 2.27027 8.8919V8.46385Z" fill="black"/>
</g>
</g>
<defs>
<clipPath id="clip0_156_4553">
<rect width="14" height="14" fill="white"/>
</clipPath>
</defs>
</svg>

<svg xmlns="http://www.w3.org/2000/svg" fill="none" viewBox="0 0 14 14"><g clip-path="url(#a)"><path fill="#000" fill-rule="evenodd" d="M3.405 2.838c0-.523.424-.946.946-.946h7.568c.522 0 .946.423.946.946v4.694l-1.715-1.45a.57.57 0 0 0-.799.066l-.807.95L6.55 4.165a.57.57 0 0 0-.83.038L3.405 6.919V2.838m5.402 5.127L6.19 5.402 3.405 8.67v.222c0 .522.424.946.946.946h2.863zm-.103 1.873h3.215c.481 0 .879-.36.938-.826L10.85 7.315zM14 8.76v.132c0 1.15-.932 2.081-2.081 2.081h-.19v.19a2.085 2.085 0 0 1-2.08 2.08H2.08A2.085 2.085 0 0 1 0 11.163V5.107c0-1.146.935-2.081 2.081-2.081h.19v-.19c0-1.148.931-2.08 2.08-2.08h7.568c1.15 0 2.081.932 2.081 2.08V8.76M2.27 8.464V4.162h-.189a.95.95 0 0 0-.946.946v6.054a.95.95 0 0 0 .946.946H9.65a.95.95 0 0 0 .946-.946v-.189H4.35a2.08 2.08 0 0 1-2.08-2.081z" clip-rule="evenodd"/></g><defs><clipPath id="a"><path fill="#fff" d="M0 0h14v14H0z"/></clipPath></defs></svg>
